**kern	**silbe
*ICvox	*
*f#:	*
*M4/4	*
*clefF4	*
=1	=1
1r	.
=2	=2
1r	.
=3	=3
1r	.
=4	=4
2r	.
8r	.
8C#	I-
8F#	-ma-
8G#	-gine
=5	=5
8A	me
8G#	and
4A	you
8r	.
8G#	I
4A	do
=6	=6
4r	.
4c#	I
8B	think
8A	a-
8G#	-bout
8F#	you
=7	=7
8G#	day
8F#	and
4G#	night
8r	.
8G#	It's
8E	on-
8F#	-ly
=8	=8
16G#	right
16A	_
4G#	_
8B	to
8A	think
8G#	a-
8F#	-bout
8E	the
=9	=9
8F#	girl
8E	you
4F#	love
8r	.
8F#	and
8D	hold
8E	her
=10	=10
4F#	tight
8r	.
8F#	So
8F#	ha-
4G#	-ppy
8F#	to-
=11	=11
4E#	-ge-
[2.c#	-ther
=12	=12
4c#]	_
4r	.
8r	.
8C#	If
8F#	I
8G#	should
=13	=13
8A	call
8G#	you
4A	up
8r	.
8A	in-
8F#	-vest
8G#	a
=14	=14
4A	dime
8r	.
8c#	and
8B	you
8A	say
8G#	you
8F#	be-
=15	=15
8G#	-long
8F#	to
4G#	me
8r	.
8G#	and
8E	ease
8F#	my
=16	=16
16G#	mind
16A	_
4G#	_
8B	I-
8A	-ma-
8G#	-gine
8F#	how
8E	the
=17	=17
8F#	world
8E	could
4F#	be
8r	.
8F#	so
8D	ve-
8E	-ry
=18	=18
4F#	fine
8r	.
8F#	So
8F#	ha-
4G#	-ppy
8F#	to-
=19	=19
4E#	-ge-
[2.c#	-ther
=20	=20
2c#]	_
2r	.
=21	=21
*F#:	*
4f#	I
4c#	can't
4A#	see
4F#	me
=22	=22
8E#	lo-
8G#	-ving
8B	no-
4d#	-bo-
8e	-dy
4d#	like
=23	=23
4c#	you
8r	.
8c#	for
8c#	all
4d#	my
16e	life
16f#	_
=24	=24
2.e	_
4r	.
=25	=25
4f#	When
4c#	you're
4A#	with
4F#	me
=26	=26
8E#	ba-
8G#	-by
8B	the
4d#	skies
8e	will
4d#	be
=27	=27
4c#	blue
8r	.
8c#	for
8c#	all
4d#	my
16e	life
16f#	_
=28	=28
2.e	_
4r	.
=29	=29
*f#:	*
8A	Me
8G#	and
4A	you
8r	.
8A	and
8F#	you
8G#	and
=30	=30
4A	me
8r	.
8c#	No
8B	ma-
8A	-tter
8G#	how
8F#	they
=31	=31
8G#	toss
8F#	the
4G#	dice
8r	.
8G#	it
8E	had
8F#	to
=32	=32
4G#	be
8r	.
8B	The
8A	on-
8G#	-ly
8F#	one
8E	for
=33	=33
8F#	me
8E	is
4F#	you
8r	.
8F#	and
8D	you
8E	for
=34	=34
4F#	me
8r	.
8F#	so
8F#	ha-
4G#	-ppy
8F#	to-
=35	=35
4E#	-ge-
[2.c#	-ther
=36	=36
2c#]	_
2r	.
=37	=37
*F#:	*
4f#	I
4c#	can't
4A#	see
4F#	me
=38	=38
8E#	lo-
8G#	-ving
8B	no-
4d#	-bo-
8e	-dy
4d#	like
=39	=39
4c#	you
8r	.
8c#	for
8c#	all
4d#	my
16e	life
16f#	_
=40	=40
2.e	_
4r	.
=41	=41
4f#	When
4c#	you're
4A#	with
4F#	me
=42	=42
8E#	ba-
8G#	-by
8B	the
4d#	skies
8e	will
4d#	be
=43	=43
4c#	blue
8r	.
8c#	for
8c#	all
4d#	my
16e	life
16f#	_
=44	=44
2.e	_
4r	.
=45	=45
*f#:	*
8A	Me
8G#	and
4A	you
8r	.
8A	and
8F#	you
8G#	and
=46	=46
4A	me
8r	.
8c#	No
8B	ma-
8A	-tter
8G#	how
8F#	they
=47	=47
8G#	toss
8F#	the
4G#	dice
8r	.
8G#	it
8E	had
8F#	to
=48	=48
4G#	be
8r	.
8B	The
8A	on-
8G#	-ly
8F#	one
8E	for
=49	=49
8F#	me
8E	is
4F#	you
8r	.
8F#	and
8D	you
8E	for
=50	=50
4F#	me
8r	.
8F#	so
8F#	ha-
4G#	-ppy
8F#	to-
=51	=51
4E#	-ge-
[2.c#	-ther
=52	=52
2.c#]	_
4r	.
=53	=53
*F#:	*
4f#	Ba
4c#	ba
4A#	ba
4F#	ba
=54	=54
8E#	ba
8G#	ba
8B	ba
4d#	ba
8e	ba
4d#	ba
=55	=55
4c#	ba
8r	.
8c#	ba
8c#	ba
4.d#	ba
=56	=56
2.e	ba
4r	.
=57	=57
4f#	ba
4c#	ba
4A#	ba
4F#	ba
=58	=58
8E#	ba
8G#	ba
8B	ba
4d#	ba
8e	ba
4d#	ba
=59	=59
4c#	ba
8r	.
8c#	ba
8c#	ba
4.d#	ba
=60	=60
[1e	ba
=61	=61
2.e]	_
4r	.
=62	=62
*f#:	*
8A	Me
8G#	and
4A	you
8r	.
8A	and
8F#	you
8G#	and
=63	=63
4A	me
8r	.
8c#	No
8B	ma-
8A	-tter
8G#	how
8F#	they
=64	=64
8G#	toss
8F#	the
4G#	dice
8r	.
8G#	it
8E	had
8F#	to
=65	=65
4G#	be
8r	.
8B	The
8A	on-
8G#	-ly
8F#	one
8E	for
=66	=66
8F#	me
8E	is
4F#	you
8r	.
8F#	and
8D	you
8E	for
=67	=67
4F#	me
8r	.
8F#	so
8F#	ha-
4G#	-ppy
8F#	to-
=68	=68
4E#	-ge-
[2.c#	-ther
=69	=69
4c#]	_
8r	.
8F#	so
8F#	ha-
4G#	-ppy
8F#	to-
=70	=70
4E#	-ge-
[2.c#	-ther
=71	=71
4c#]	_
4r	.
6F#	How
6G#	is
6F#	the
=72	=72
4E#	wea-
[2.c#	-ther?
=73	=73
4c#]	_
8r	.
8F#	so
8F#	ha-
4G#	-ppy
8F#	to-
=74	=74
4E#	-ge-
[2.c#	-ther
=75	=75
4c#]	_
8r	.
8F#	We're
8F#	ha-
4G#	-ppy
8F#	to-
=76	=76
4E#	-ge-
[2.c#	-ther
=77	=77
4c#]	_
8r	.
8F#	so
8F#	ha-
4G#	-ppy
8F#	to-
=78	=78
4E#	-ge-
[2.c#	-ther
=79	=79
4c#]	_
4r	.
8F#	ha-
4G#	-ppy
8F#	to-
=80	=80
4E#	-ge-
[2.c#	-ther
=81	=81
4c#]	_
8r	.
8F#	so
8F#	ha-
4G#	-ppy
8F#	to-
=82	=82
4E#	-ge-
[2.c#	-ther
=83	=83
4c#]	_
8r	.
8F#	so
8F#	ha-
4G#	-ppy
8F#	to-
=84	=84
4E#	-ge-
[2.c#	-ther
=85	=85
4c#]	_
4r	.
2r	.
r;	.
r;	.
*-	*-
!!!ENC: Nathaniel Condit-Schultz